X:1
T:Lo, how a Rose e'er blooming
T:Lo, how a Rose e'er blooming
T:Michael Praetorius (1571?-1621)
T:16th Century German Carol
T:Creative Commons Attribution 4.0 International (CC BY 4.0) Copyright © 2019 Provided to the Choral Public Domain Library (http://www.cpdl.org) by the Freshman Chorus of St. John's College of Annapolis. Edition may be freely distributed, duplicated, performed, or recorded. 
T:Creative Commons Attribution 4.0 International (CC BY 4.0) Copyright © 2019 Provided to the Choral Public Domain Library (http://www.cpdl.org) by the Freshman Chorus of St. John's College of Annapolis. Edition may be freely distributed, duplicated, performed, or recorded. 
C:Michael Praetorius (1571?-1621)
Z:16th Century German Carol
Z:Creative Commons Attribution 4.0 International (CC BY 4.0) Copyright © 2019
Z:Provided to the Choral Public Domain Library (http://www.cpdl.org)
Z:by the Freshman Chorus of St. John's College of Annapolis.
Z:Edition may be freely distributed, duplicated, performed, or recorded.
Z:
%%score ( 1 2 ) ( 3 4 )
L:1/8
M:4/4
K:F
V:1 treble nm="1"
V:2 treble 
V:3 bass nm="3"
V:4 bass 
V:1
 c4 c2 c2 d2 c2 c4 A4 | B4 A2 G4 F4 E2 !fermata!F4 |"^3" c4 c2 c2 d2 c2 c4 A4 | %3
 B4 A2 G4 F4 E2 !fermata!F4 |"^5" z2 A2 G2 E2 F2 D2 C4 | z2 c2 c2 c2 d2 c2 c4 A4 | %6
 B4 A2 G4 F4 E2 F8 |] %7
V:2
 A4 A2 F2 F2 F2 E4 D4 | D4 C2 C2 (D3 A, C2) C2 C4 | A4 A2 F2 F2 F2 E4 D4 | %3
w: 1.~Lo, how a rose e'er bloo- ming|from ten- der stem * * has sprung!|Of Jes- se's lin- eage com- ing|
w: 2.~I- sa- iah 'twas fore- told it,|the rose I have * * in mind.|With Ma- ry we be- hold it,|
w: 3.~Flow- er, whose fra- grance ten- der|with sweet- ness fills * * the air,|dis- pel in glo- rious splen- dor|
 D4 C2 C2 (D3 A, C2) C2 C4 | z2 F2 D2 C2 C2 =B,2 (CD E2) | z2 E2 G2 F2 F2 F2 E4 D4 | %6
w: as saints of old * * have sung.|It came, a flow- eret bright, * *|a- mid the cold of win- ter,|
w: the vir- gin mo- * * ther kind.|To show God's love a- right, * *|she bore to us a sav- ior,|
w: the dark- ness ev- * * 'ry *|True man, yet ver- y God, * *|from sin and death he saves us,|
 D4 F2 D2 (E2 F2 G2) C2 C8 |] %7
w: when half- spent was * * the night.|
w: when half- spent was * * the night.|
w: and light- ens ev- * * 'ry load.|
V:3
 C4 C2 A,2 B,2 A,2 G,4 F,4 | F,4 A,2 C2 (B,2 A,4) G,2 !fermata!A,4 | C4 C2 A,2 B,2 A,2 G,4 F,4 | %3
 F,4 A,2 C2 (B,2 A,4) G,2 !fermata!A,4 |"^7" z2 C2 B,2 A,2 A,2 G,2 G,4 | %5
 z2 G,2 G,2 A,2 B,2 A,2 G,4 ^F,4 | G,4 C2 B,2 A,4 G,4 A,8 |] %7
V:4
 F,4 F,2 F,2 B,2 F,2 C,4 D,4 | B,,4 F,2 E,2 D,4 C,4 F,,4 | F,4 F,2 F,2 B,2 F,2 C,4 D,4 | %3
 B,,4 F,2 E,2 D,4 C,4 F,,4 | z2 F,2 G,2 A,2 F,2 G,2 C,4 | z2 C,2 E,2 F,2 B,,2 F,2 C,4 D,4 | %6
 G,,4 A,,2 B,,2 C,4 C,4 F,,8 |] %7

